!!!COM: Schiørring, Niels
!!!CDT: 1743-1798
!!!OPR@@DA: Choral-Bog
!!!ONM: 65
!!!OTL@@DA: Marie hun er en Jomfrue reen
**kern	**fb	**kern	**kern	**kern	**kern	**kern	**kern	**kern
*part6	*part6	*part6	*part5	*part5	*part4	*part3	*part2	*part1
*staff8	*	*staff7	*staff6	*staff5	*staff4	*staff3	*staff2	*staff1
*clefF4	*	*clefC1	*clefF4	*clefC1	*clefF4	*clefC4	*clefC3	*clefC1
*	*	*	*	*	*	*Trd0c0	*	*
*k[b-]	*	*k[b-]	*k[b-]	*k[b-]	*k[b-]	*k[b-]	*k[b-]	*k[b-]
*F:	*	*F:	*F:	*F:	*F:	*F:	*F:	*F:
*M4/4	*	*M4/4	*M4/4	*M4/4	*M4/4	*M4/4	*M4/4	*M4/4
*met(c)	*	*met(c)	*met(c)	*met(c)	*met(c)	*met(c)	*met(c)	*met(c)
*	*	*	*^	*^	*	*	*	*
2GG	.	2g	2ryy	2GG	2B-	2d	2GG	2b-	2d	2g
=1	=1	=1	=1	=1	=1	=1	=1	=1	=1	=1
2BB-	6	2g	2G	2BB-	2g	2d	2BB-	2g	2d	2g
2GG	.	2g	2ryy@	2GG	2B-	2d	2GG	2b-	2d	2g
=2	=2	=2	=2	=2	=2	=2	=2	=2	=2	=2
2D	#	2f#X	2A	2D	2f#X	2d	2D	2a	2d	2f#X
2BB-	6	2b-	[2G	2BB-	2b-	2d	2BB-	[2g	2d	2b-
=3	=3	=3	=3	=3	=3	=3	=3	=3	=3	=3
4C	6 5 -	2a	4G]	4C	2a	4e-X	(4C	(4g]	(4e-X	2a
4D	.	.	4F#X	4D	.	2d	4D)	4f#X)	2d)	.
2E-X	7	2g	2G	2E-X	2g	.	2E-X	2g	.	2g
.	.	.	.	.	.	4c#X	.	.	4c#X	.
=4	=4	=4	=4	=4	=4	=4	=4	=4	=4	=4
2D	#	2f#X	2A	2D	2f#X	2d	2D	2a	2d	2f#X
2E-X	2	2f#	2A	2E-X	2f#	2cni	2E-X	2a	2cni	2f#
=5	=5	=5	=5	=5	=5	=5	=5	=5	=5	=5
2D	#	2f#X	2A	2D	2f#X	2d	2D	2a	2d	2f#X
2C	4	2f#	2A	2C	2f#	2d	2C	2a	2d	2f#
=6	=6	=6	=6	=6	=6	=6	=6	=6	=6	=6
2BBn	6	2g	2G	2BBn	2g	2d	2BBn	2g	2d	2g
2BB-X	nr4	2e	2G	2BB-X	2e	2c	2BB-X	2g	2c	2e
=7	=7	=7	=7	=7	=7	=7	=7	=7	=7	=7
2AA	6	1f#X	1A	2AA	1f#X	2c	(2AA	1a	(2c	1f#X
2D	#	.	.	2D	.	2d	2D)	.	2d)	.
=	=	=	=	=	=	=	=	=	=	=
*	*	*	*	*	*	*^	*	*	*	*
2GG	.	2g	2G	2GG	2g	2d	2B-\	2GG	2b-	2d	2g
*	*	*	*	*	*	*v	*v	*	*	*	*
=8:|!	=8:|!	=8:|!	=8:|!	=8:|!	=8:|!	=8:|!	=8:|!	=8:|!	=8:|!	=8:|!
2D	n	2a	2ryy	2D	2d	2f	2D	2dd	2f	2a
=9	=9	=9	=9	=9	=9	=9	=9	=9	=9	=9
2F	.	2a	2ryy@	2F	2c	2f	2F	2cc	2f	2a
2E	6	2cc	2c	2E	2cc	2g	2E	2cc	2g	2cc
=10	=10	=10	=10	=10	=10	=10	=10	=10	=10	=10
2E-X	2	2a	2c	2E-X	2a	2f	2E-X	2cc	2f	2a
2D	6	2f	2B-	2D	2f	2f	2D	2b-	2f	2f
=11	=11	=11	=11	=11	=11	=11	=11	=11	=11	=11
2D-X	-r2	2g	2B-	2D-X	2g	1e-X	2D-X	2b-	2e-X	2g
2C	6	2a	2c	2C	2a	.	2C	2cc	2e-	2a
=12	=12	=12	=12	=12	=12	=12	=12	=12	=12	=12
2BB-	.	2b-	2F	2BB-	2b-	2dni	2BB-	2dd	2f	2b-
*	*	*	*	*	*	*^	*	*	*	*
2GG	.	2b-	2G	2GG	2b-	2g	2d\	2GG	2dd	2g	2b-
=13	=13	=13	=13	=13	=13	=13	=13	=13	=13	=13	=13
2AA	#	2a	2A	2AA	2a	2e	2c#X\	2AA	2cc#X	2e	2a
2AA	7 #	2g	2A	2AA	2g	2e	2c#\	2AA	2a	2c#X	2g
=14	=14	=14	=14	=14	=14	=14	=14	=14	=14	=14	=14
2D	#	2f#X	2A	2D	2f#X	2d	1r	2D	2a	2d	2f#X
2C	4 -	2f#	2A	2Cni	2f#	2e-X	.	2C	2a	2e-X	2f#
=15	=15	=15	=15	=15	=15	=15	=15	=15	=15	=15	=15
2BB-	5	2f#X	2B-	2BB-	2f#X	2d	1r	2BB-	2b-	2d	2f#X
4AA	6	2f#	4ryy@	4AA	2c	2c	.	(4AA	2cc	2c	2f#
4A	.	.	4ryy@	4A	.	.	.	4A)	.	.	.
=16	=16	=16	=16	=16	=16	=16	=16	=16	=16	=16	=16
2B-	6	2g	[2B-	2B-	2g	2d	1r	2B-	2b-	2d	2g
2C#X	7	2e	2B-]	2C#X	2e	2e	.	2C#X	2b-	2e	2e
=17	=17	=17	=17	=17	=17	=17	=17	=17	=17	=17	=17
1D	#	1f#X	1A	1D	1f#X	1d	1r	1D	1a	1d	1f#X
=18	=18	=18	=18	=18	=18	=18	=18	=18	=18	=18	=18
2GG	.	2g	2G	2GG	2g	2d	2B-\	2GG	2b-	2d	2g
*	*	*	*v	*v	*	*	*	*	*	*	*
*	*	*	*	*v	*v	*v	*	*	*	*
==	==	==	==	==	==	==	==	==
*-	*-	*-	*-	*-	*-	*-	*-	*-
!!!system-decoration: {(s1,s2,s3,s4)}{(s5,s6)}{(s7,s8)}
!!!RDF**kern: i = editorial accidental
!!!AGN: chorale
!!!EED: Derek Remeš
!!!EED2: Victor Phan
!!!END: 2023/11/28
!!!ENC: Wolfgang Drescher
!!!EEV: 2023/11/28
!!!title: @{ONM}. @{OTL}